X:100
T: Two Birds on a Tree
S: "Treoir"
Z: B.Black
M: 4/4
L: 1/8
R: hornpipe
K: G
DE/G/ | A2 BA EAAA | Bc/d/ AB G2 AG | GAAA BAGA |\
(3BAB de gedB |
A2 BA EAAA | Bc/d/ AB G2 AG | GAAA BAGA | BA/B/ dB A2 :|
dc|BA/G/ Bd g2 ga|ba/g/ ag/f/ gedc|BA/G/ Bd g2 ga|\
ba/g/ af/g/ gfga|
bagb agef | gedB AE ED/E/ | GABd dBeb | dBAB G2 :|
